dist/images/info/img3.svg

<svg width="34" height="34" viewBox="0 0 34 34" fill="none" xmlns="http://www.w3.org/2000/svg">
<path d="M32.6719 2.39062C31.6766 2.39062 2.32342 2.39062 1.32812 2.39062C0.594602 2.39062 0 2.98523 0 3.71875V30.2812C0 31.0148 0.594602 31.6094 1.32812 31.6094H32.6719C33.4054 31.6094 34 31.0148 34 30.2812V3.71875C34 2.98523 33.4054 2.39062 32.6719 2.39062ZM13.0156 5.04688H20.9844V15.0835L17.4663 13.7642C17.1658 13.6515 16.8343 13.6515 16.5336 13.7642L13.0156 15.0835V5.04688ZM31.3438 28.9531H2.65625V5.04688H10.3594V17C10.3594 17.9261 11.2861 18.5689 12.1538 18.2436L17 16.4263L21.8462 18.2436C22.7135 18.569 23.6406 17.9264 23.6406 17V5.04688H31.3438V28.9531Z" fill="#0D0D0D"/>
</svg>

<svg width="34" height="34" fill="none" xmlns="http://www.w3.org/2000/svg"><path d="M32.672 2.39H1.328A1.33 1.33 0 000 3.72v26.56c0 .734.595 1.328 1.328 1.328h31.344c.733 0 1.328-.594 1.328-1.328V3.72c0-.734-.595-1.328-1.328-1.328zM13.016 5.048h7.968v10.037l-3.518-1.32a1.329 1.329 0 00-.932 0l-3.518 1.32V5.046zm18.328 23.906H2.656V5.047h7.703V17a1.33 1.33 0 001.795 1.244L17 16.426l4.846 1.818A1.329 1.329 0 0023.641 17V5.047h7.703v23.906z" fill="#0D0D0D"/></svg>
